static/logos/productHunt-wordmark-color.svg

<svg width="100" height="24" viewBox="0 0 100 24" fill="none" xmlns="http://www.w3.org/2000/svg">
<g clip-path="url(#clip0_1_1488)">
<path d="M23.6905 11.7015C23.6905 18.1637 18.49 23.403 12.0757 23.403C5.66057 23.403 0.460938 18.1637 0.460938 11.7015C0.460938 5.23847 5.66098 0 12.0757 0C18.49 0 23.6905 5.23887 23.6905 11.7015Z" fill="#DA552F"/>
<path d="M13.6214 11.7015H10.3307V8.19104H13.6214C13.8501 8.19104 14.0767 8.23646 14.2881 8.32465C14.4994 8.41292 14.6915 8.54215 14.8533 8.70514C15.015 8.86812 15.1434 9.06166 15.2309 9.27458C15.3185 9.48757 15.3636 9.71583 15.3636 9.94632C15.3636 10.1768 15.3185 10.4051 15.2309 10.618C15.1434 10.831 15.015 11.0244 14.8533 11.1874C14.6915 11.3504 14.4994 11.4797 14.2881 11.5679C14.0767 11.6561 13.8501 11.7015 13.6214 11.7015ZM13.6214 5.85077H8.00781V17.5523H10.3307V14.0418H13.6214C15.8664 14.0418 17.6865 12.2082 17.6865 9.94632C17.6865 7.68444 15.8664 5.85077 13.6214 5.85077Z" fill="white"/>
<path d="M35.8881 10.2713C35.8881 9.62736 35.3971 9.23715 34.7592 9.23715H33.0491V11.2933H34.7596C35.3975 11.2933 35.8885 10.9031 35.8885 10.2713H35.8881ZM31.4297 15.6017V7.8009H34.9868C36.6409 7.8009 37.5409 8.92701 37.5409 10.2713C37.5409 11.6039 36.6293 12.7296 34.9868 12.7296H33.0491V15.6017H31.4301H31.4297ZM38.5268 15.6017V9.91465H39.9739V10.6615C40.3732 10.1788 41.0464 9.77701 41.7309 9.77701V11.2013C41.6275 11.1785 41.5025 11.1673 41.3316 11.1673C40.8526 11.1673 40.2134 11.4426 39.9739 11.7996V15.6017H38.5264H38.5268ZM46.6024 12.6836C46.6024 11.8219 46.0995 11.0752 45.1875 11.0752C44.2861 11.0752 43.7853 11.8219 43.7853 12.684C43.7853 13.5568 44.2861 14.3035 45.1875 14.3035C46.0995 14.3035 46.602 13.5568 46.602 12.6836H46.6024ZM42.2794 12.6836C42.2794 11.1101 43.3741 9.77701 45.1875 9.77701C47.0123 9.77701 48.107 11.1097 48.107 12.6836C48.107 14.2575 47.0123 15.6017 45.1875 15.6017C43.3741 15.6017 42.2794 14.2575 42.2794 12.6836ZM52.9802 13.6717V11.7072C52.7407 11.339 52.2163 11.0752 51.7368 11.0752C50.9051 11.0752 50.3347 11.7299 50.3347 12.684C50.3347 13.6484 50.9051 14.3035 51.7368 14.3035C52.2163 14.3035 52.7407 14.0394 52.9802 13.6712V13.6717ZM52.9802 15.6017V14.7517C52.5464 15.3028 51.9541 15.6017 51.2809 15.6017C49.9013 15.6017 48.8407 14.5453 48.8407 12.6836C48.8407 10.8803 49.8786 9.77701 51.2809 9.77701C51.9307 9.77701 52.5464 10.0531 52.9802 10.627V7.8009H54.4395V15.6017H52.9802ZM59.5979 15.6017V14.763C59.2221 15.1767 58.5607 15.6017 57.6595 15.6017C56.4511 15.6017 55.8811 14.9354 55.8811 13.8553V9.91465H57.3286V13.281C57.3286 14.051 57.7277 14.3035 58.3434 14.3035C58.902 14.3035 59.3473 13.9934 59.5979 13.6712V9.91465H61.0461V15.6017H59.5979ZM62.1338 12.6836C62.1338 10.9836 63.3652 9.77701 65.0534 9.77701C66.1823 9.77701 66.8663 10.2713 67.2313 10.7767L66.2843 11.6723C66.0225 11.2817 65.6234 11.0752 65.1217 11.0752C64.2434 11.0752 63.6281 11.7188 63.6281 12.684C63.6281 13.6484 64.2434 14.3035 65.1217 14.3035C65.6234 14.3035 66.0225 14.0738 66.2843 13.6944L67.2313 14.5909C66.8663 15.0963 66.1823 15.6017 65.0534 15.6017C63.3652 15.6017 62.1338 14.3956 62.1338 12.6836ZM68.4766 14.0738V11.1901H67.5646V9.91465H68.4766V8.39799H69.9254V9.91465H71.0421V11.1901H69.9254V13.6833C69.9254 14.0394 70.1067 14.3035 70.4268 14.3035C70.6428 14.3035 70.8491 14.2231 70.9275 14.1315L71.2366 15.2452C71.0199 15.4413 70.6317 15.6017 70.0275 15.6017C69.0125 15.6017 68.4766 15.0735 68.4766 14.0738ZM80.3185 15.6017V12.2353H76.7261V15.6017H75.1081V7.8009H76.7261V10.8107H80.3185V7.80132H81.9491V15.6017H80.3185ZM87.1317 15.6017V14.763C86.7553 15.1767 86.0942 15.6017 85.1935 15.6017C83.9845 15.6017 83.4143 14.9354 83.4143 13.8553V9.91465H84.8623V13.281C84.8623 14.051 85.2616 14.3035 85.8775 14.3035C86.4359 14.3035 86.881 13.9934 87.1317 13.6712V9.91465H88.5803V15.6017H87.1317ZM93.7366 15.6017V12.1097C93.7366 11.3397 93.3386 11.0756 92.722 11.0756C92.1525 11.0756 91.7192 11.3974 91.4678 11.7191V15.6022H90.0206V9.91465H91.4678V10.627C91.822 10.2136 92.506 9.77701 93.3949 9.77701C94.6157 9.77701 95.197 10.4661 95.197 11.5458V15.6017H93.7373H93.7366ZM96.9227 14.0738V11.1901H96.0116V9.91465H96.9227V8.39799H98.3713V9.91465H99.4886V11.1901H98.3713V13.6833C98.3713 14.0394 98.5532 14.3035 98.8727 14.3035C99.0893 14.3035 99.2956 14.2231 99.3748 14.1315L99.6824 15.2452C99.4664 15.4413 99.0775 15.6017 98.4734 15.6017C97.4588 15.6017 96.9227 15.0735 96.9227 14.0738Z" fill="#DA552F"/>
</g>
<defs>
<clipPath id="clip0_1_1488">
<rect width="100" height="23.6111" fill="white"/>
</clipPath>
</defs>
</svg>

<svg xmlns="http://www.w3.org/2000/svg" width="266.667" height="64" fill="none" viewBox="0 0 100 24"><g clip-path="url(#a)"><path fill="#DA552F" d="M23.69 11.701c0 6.463-5.2 11.702-11.614 11.702C5.66 23.403.46 18.163.46 11.702.46 5.237 5.66 0 12.076 0 18.49 0 23.69 5.239 23.69 11.701Z"/><path fill="#fff" d="M13.621 11.701h-3.29v-3.51h3.29a1.732 1.732 0 0 1 1.232.514 1.757 1.757 0 0 1 .51 1.241 1.766 1.766 0 0 1-.51 1.241 1.742 1.742 0 0 1-1.232.514Zm0-5.85H8.008v11.701h2.323v-3.51h3.29c2.245 0 4.065-1.834 4.065-4.096s-1.82-4.095-4.065-4.095Z"/><path fill="#DA552F" d="M35.888 10.271c0-.644-.49-1.034-1.129-1.034h-1.71v2.056h1.71c.639 0 1.13-.39 1.13-1.022Zm-4.458 5.33v-7.8h3.557c1.654 0 2.554 1.126 2.554 2.47 0 1.333-.912 2.459-2.554 2.459h-1.938v2.872H31.43Zm7.097 0V9.916h1.447v.747c.4-.483 1.072-.885 1.757-.885v1.424a1.86 1.86 0 0 0-.4-.034c-.478 0-1.118.276-1.357.633v3.802h-1.448Zm8.075-2.917c0-.862-.502-1.609-1.414-1.609-.902 0-1.403.747-1.403 1.609 0 .873.501 1.62 1.403 1.62.911 0 1.414-.747 1.414-1.62Zm-4.323 0c0-1.574 1.095-2.907 2.908-2.907 1.825 0 2.92 1.333 2.92 2.907s-1.095 2.918-2.92 2.918c-1.813 0-2.908-1.345-2.908-2.918Zm10.701.988v-1.965c-.24-.368-.764-.632-1.243-.632-.832 0-1.402.655-1.402 1.609 0 .964.57 1.62 1.402 1.62.48 0 1.004-.265 1.243-.633Zm0 1.93v-.85c-.434.55-1.026.85-1.7.85-1.379 0-2.44-1.057-2.44-2.918 0-1.804 1.039-2.907 2.44-2.907.65 0 1.266.276 1.7.85V7.801h1.46v7.8h-1.46Zm6.618 0v-.839a2.608 2.608 0 0 1-1.938.839c-1.209 0-1.779-.667-1.779-1.747v-3.94h1.448v3.366c0 .77.399 1.022 1.014 1.022.559 0 1.004-.31 1.255-.632V9.915h1.448v5.687h-1.448Zm2.536-2.918c0-1.7 1.231-2.907 2.92-2.907 1.128 0 1.812.494 2.177 1l-.947.895c-.262-.39-.66-.597-1.162-.597-.879 0-1.494.644-1.494 1.609 0 .964.615 1.62 1.494 1.62.501 0 .9-.23 1.162-.61l.947.897c-.365.505-1.049 1.01-2.178 1.01-1.688 0-2.92-1.205-2.92-2.917Zm6.343 1.39V11.19h-.912V9.915h.912V8.398h1.448v1.517h1.117v1.275h-1.117v2.493c0 .356.182.62.502.62.216 0 .422-.08.5-.171l.31 1.113c-.217.196-.605.357-1.21.357-1.014 0-1.55-.529-1.55-1.528Zm11.841 1.528v-3.367h-3.592v3.367h-1.618V7.8h1.618v3.01h3.593V7.8h1.63v7.8h-1.63Zm6.814 0v-.839a2.61 2.61 0 0 1-1.939.839c-1.209 0-1.779-.667-1.779-1.747v-3.94h1.448v3.366c0 .77.4 1.022 1.016 1.022.558 0 1.003-.31 1.254-.632V9.915h1.448v5.687h-1.448Zm6.605 0V12.11c0-.77-.398-1.034-1.015-1.034-.57 0-1.003.321-1.254.643v3.883H90.02V9.915h1.447v.712c.354-.413 1.038-.85 1.927-.85 1.22 0 1.802.69 1.802 1.769v4.056h-1.46Zm3.186-1.528V11.19h-.911V9.915h.91V8.398h1.45v1.517h1.117v1.275H98.37v2.493c0 .356.182.62.502.62.216 0 .423-.08.502-.171l.307 1.113c-.216.196-.605.357-1.209.357-1.014 0-1.55-.529-1.55-1.528Z"/></g><defs><clipPath id="a"><path fill="#fff" d="M0 0h100v23.611H0z"/></clipPath></defs></svg>
